X: 11403
Q: "Not too slow."
M: C
L: 1/8
K: A
c>Bcd (ed)Bc | A>GAB c2c>c | (Bf)ed (cB)AG | A2z2 z2A>B |\
c>Bcd ecBc | A>GAB c2dc | Bgf^d e2E>F | G2{G}F>E E2e>=d |
c>BA=G F2fE | (B>c)BA (AG)(FE) | A2A>A A2Bc | d6 zB |\
(c>B)c>d e2ce | (dc)(de) f2ec | dfba agfe | a2z2 z2 |]


